svg/design/border_top_line.svg

<?xml version="1.0" encoding="UTF-8"?>
<svg width="24px" height="24px" viewBox="0 0 24 24" version="1.1" xmlns="http://www.w3.org/2000/svg" xmlns:xlink="http://www.w3.org/1999/xlink">
    <title>border_top_line</title>
    <g id="页面-1" stroke="none" stroke-width="1" fill="none" fill-rule="evenodd">
        <g id="Design" transform="translate(-288.000000, -192.000000)">
            <g id="border_top_line" transform="translate(288.000000, 192.000000)">
                 <path d="M24,0 L24,24 L0,24 L0,0 L24,0 Z M12.5934901,23.257841 L12.5819402,23.2595131 L12.5108777,23.2950439 L12.4918791,23.2987469 L12.4918791,23.2987469 L12.4767152,23.2950439 L12.4056548,23.2595131 C12.3958229,23.2563662 12.3870493,23.2590235 12.3821421,23.2649074 L12.3780323,23.275831 L12.360941,23.7031097 L12.3658947,23.7234994 L12.3769048,23.7357139 L12.4804777,23.8096931 L12.4953491,23.8136134 L12.4953491,23.8136134 L12.5071152,23.8096931 L12.6106902,23.7357139 L12.6232938,23.7196733 L12.6232938,23.7196733 L12.6266527,23.7031097 L12.609561,23.275831 C12.6075724,23.2657013 12.6010112,23.2592993 12.5934901,23.257841 L12.5934901,23.257841 Z M12.8583906,23.1452862 L12.8445485,23.1473072 L12.6598443,23.2396597 L12.6498822,23.2499052 L12.6498822,23.2499052 L12.6471943,23.2611114 L12.6650943,23.6906389 L12.6699349,23.7034178 L12.6699349,23.7034178 L12.678386,23.7104931 L12.8793402,23.8032389 C12.8914285,23.8068999 12.9022333,23.8029875 12.9078286,23.7952264 L12.9118235,23.7811639 L12.8776777,23.1665331 C12.8752882,23.1545897 12.8674102,23.1470016 12.8583906,23.1452862 L12.8583906,23.1452862 Z M12.1430473,23.1473072 C12.1332178,23.1423925 12.1221763,23.1452606 12.1156365,23.1525954 L12.1099173,23.1665331 L12.0757714,23.7811639 C12.0751323,23.7926639 12.0828099,23.8018602 12.0926481,23.8045676 L12.108256,23.8032389 L12.3092106,23.7104931 L12.3186497,23.7024347 L12.3186497,23.7024347 L12.3225043,23.6906389 L12.340401,23.2611114 L12.337245,23.2485176 L12.337245,23.2485176 L12.3277531,23.2396597 L12.1430473,23.1473072 Z" id="MingCute" fill-rule="nonzero"></path>
                <path d="M4,3 C3.44772,3 3,3.44772 3,4 C3,4.55228 3.44772,5 4,5 L20,5 C20.5523,5 21,4.55228 21,4 C21,3.44772 20.5523,3 20,3 L4,3 Z M5,16 C5,15.4477 4.55228,15 4,15 C3.44772,15 3,15.4477 3,16 C3,16.5523 3.44772,17 4,17 C4.55228,17 5,16.5523 5,16 Z M5,12 C5,11.4477 4.55228,11 4,11 C3.44772,11 3,11.4477 3,12 C3,12.5523 3.44772,13 4,13 C4.55228,13 5,12.5523 5,12 Z M4,7 C4.55228,7 5,7.44771 5,8 C5,8.55229 4.55228,9 4,9 C3.44772,9 3,8.55229 3,8 C3,7.44771 3.44772,7 4,7 Z M4,21 C4.55228,21 5,20.5523 5,20 C5,19.4477 4.55228,19 4,19 C3.44772,19 3,19.4477 3,20 C3,20.5523 3.44772,21 4,21 Z M8,21 C8.55228,21 9,20.5523 9,20 C9,19.4477 8.55228,19 8,19 C7.44772,19 7,19.4477 7,20 C7,20.5523 7.44772,21 8,21 Z M13,20 C13,20.5523 12.5523,21 12,21 C11.4477,21 11,20.5523 11,20 C11,19.4477 11.4477,19 12,19 C12.5523,19 13,19.4477 13,20 Z M16,21 C16.5523,21 17,20.5523 17,20 C17,19.4477 16.5523,19 16,19 C15.4477,19 15,19.4477 15,20 C15,20.5523 15.4477,21 16,21 Z M21,20 C21,20.5523 20.5523,21 20,21 C19.4477,21 19,20.5523 19,20 C19,19.4477 19.4477,19 20,19 C20.5523,19 21,19.4477 21,20 Z M12,15 C12.5523,15 13,15.4477 13,16 C13,16.5523 12.5523,17 12,17 C11.4477,17 11,16.5523 11,16 C11,15.4477 11.4477,15 12,15 Z M12,11 C12.5523,11 13,11.4477 13,12 C13,12.5523 12.5523,13 12,13 C11.4477,13 11,12.5523 11,12 C11,11.4477 11.4477,11 12,11 Z M13,8 C13,7.44771 12.5523,7 12,7 C11.4477,7 11,7.44771 11,8 C11,8.55229 11.4477,9 12,9 C12.5523,9 13,8.55229 13,8 Z M21,16 C21,15.4477 20.5523,15 20,15 C19.4477,15 19,15.4477 19,16 C19,16.5523 19.4477,17 20,17 C20.5523,17 21,16.5523 21,16 Z M21,12 C21,11.4477 20.5523,11 20,11 C19.4477,11 19,11.4477 19,12 C19,12.5523 19.4477,13 20,13 C20.5523,13 21,12.5523 21,12 Z M20,7 C20.5523,7 21,7.44771 21,8 C21,8.55229 20.5523,9 20,9 C19.4477,9 19,8.55229 19,8 C19,7.44771 19.4477,7 20,7 Z M8,13 C8.55228,13 9,12.5523 9,12 C9,11.4477 8.55228,11 8,11 C7.44772,11 7,11.4477 7,12 C7,12.5523 7.44772,13 8,13 Z M16,13 C16.5523,13 17,12.5523 17,12 C17,11.4477 16.5523,11 16,11 C15.4477,11 15,11.4477 15,12 C15,12.5523 15.4477,13 16,13 Z" id="形状" fill="#09244B"></path>
            </g>
        </g>
    </g>
</svg>

<svg xmlns="http://www.w3.org/2000/svg" width="24" height="24"><g fill="none" fill-rule="evenodd"><path d="M24 0v24H0V0h24ZM12.593 23.258l-.011.002-.071.035-.02.004-.014-.004-.071-.035c-.01-.004-.019-.001-.024.005l-.004.01-.017.428.005.02.01.013.104.074.015.004.012-.004.104-.074.012-.016.004-.017-.017-.427c-.002-.01-.009-.017-.017-.018Zm.265-.113-.013.002-.185.093-.01.01-.003.011.018.43.005.012.008.007.201.093c.012.004.023 0 .029-.008l.004-.014-.034-.614c-.003-.012-.01-.02-.02-.022Zm-.715.002a.023.023 0 0 0-.027.006l-.006.014-.034.614c0 .012.007.02.017.024l.015-.002.201-.093.01-.008.004-.011.017-.43-.003-.012-.01-.01-.184-.092Z"/><path fill="#09244B" d="M4 3a1 1 0 0 0 0 2h16a1 1 0 1 0 0-2H4Zm1 13a1 1 0 1 0-2 0 1 1 0 0 0 2 0Zm0-4a1 1 0 1 0-2 0 1 1 0 0 0 2 0ZM4 7a1 1 0 1 1 0 2 1 1 0 0 1 0-2Zm0 14a1 1 0 1 0 0-2 1 1 0 0 0 0 2Zm4 0a1 1 0 1 0 0-2 1 1 0 0 0 0 2Zm5-1a1 1 0 1 1-2 0 1 1 0 0 1 2 0Zm3 1a1 1 0 1 0 0-2 1 1 0 0 0 0 2Zm5-1a1 1 0 1 1-2 0 1 1 0 0 1 2 0Zm-9-5a1 1 0 1 1 0 2 1 1 0 0 1 0-2Zm0-4a1 1 0 1 1 0 2 1 1 0 0 1 0-2Zm1-3a1 1 0 1 0-2 0 1 1 0 0 0 2 0Zm8 8a1 1 0 1 0-2 0 1 1 0 0 0 2 0Zm0-4a1 1 0 1 0-2 0 1 1 0 0 0 2 0Zm-1-5a1 1 0 1 1 0 2 1 1 0 0 1 0-2ZM8 13a1 1 0 1 0 0-2 1 1 0 0 0 0 2Zm8 0a1 1 0 1 0 0-2 1 1 0 0 0 0 2Z"/></g></svg>
